X: 4289
T: Bobby Dazzler
R: barndance
M: 4/4
K: Dmajor
AG|:FG^GA Bcde|fdcd A2 Ad|BABd edcB|A2 G4 AG|
FG^GA Bcde|fdcd A2 Af|e2 ^de fe=dB|e4e2 AG|
FG^GA Bcde|fdcd A2 Af|g2 gf gdBd|f4f2 ef|
gdBd g2 fg|afdB A2 ^GB|A2 A2 bgec|1 d4 d2AG:|2 d4 d2e2||
K:Dmin
f2 fg agfe|d4 ^cdcd|Bd Bd fedB|A4 ABA^F|
GABd g2 b2|ag f2f2 ef|e2 ^de fede|a4 a2 e2|
f2 fg agfe|d4 ^cdcd|Bd Bd fedB|A4 ABA^F|
GABd g2 b2|ag f2f2 ef|e2 ^de fe=d^c|d4 d2 ^c2||
K:Fmaj
|:cAcA dAdA|cAcA dAdA|cAcA d^c=c=B|B4 Bcdf|
e2 ef g2 gf|efed c2 c^B|c^Bcd edcB|A4 A2B2|
cAcA dAdA|c Ac A d Ad A|f2 e f gfga|b4 b2 ga|
bgec ^Bceg|afcB A2 Bc|dBdf eceg|1 f4 f2 AB:|2 f4 f2 AG||

